Yaru++/actions/16/exchange-positions.svg

<svg viewBox="0 0 24 24" xmlns="http://www.w3.org/2000/svg">
  <path d="m4 4v7h8v-7zm1 1h6v5h-6zm8 .078125v1.0117188 2.9101562h1v-2.6445312a6 6 0 0 1 4 5.6445312h1a7 7 0 0 0 -6-6.921875zm-8 6.921875a7 7 0 0 0 6 6.921875v-1.011719-2.910156h-1v2.644531a6 6 0 0 1 -4-5.644531zm7 1v7h8v-7zm1 1h6v5h-6z" fill="#808080"/>
</svg>

<svg xmlns="http://www.w3.org/2000/svg" viewBox="0 0 24 24">
 <defs>
  <style id="current-color-scheme" type="text/css">
   .ColorScheme-Text { color:#808080; }
  </style>
 </defs>
 <path style="fill:currentColor" class="ColorScheme-Text" d="M 4 4 L 4 11 L 12 11 L 12 4 L 4 4 z M 5 5 L 11 5 L 11 10 L 5 10 L 5 5 z M 13 5.078125 L 13 6.0898438 L 13 9 L 14 9 L 14 6.3554688 A 6 6 0 0 1 18 12 L 19 12 A 7 7 0 0 0 13 5.078125 z M 5 12 A 7 7 0 0 0 11 18.921875 L 11 17.910156 L 11 15 L 10 15 L 10 17.644531 A 6 6 0 0 1 6 12 L 5 12 z M 12 13 L 12 20 L 20 20 L 20 13 L 12 13 z M 13 14 L 19 14 L 19 19 L 13 19 L 13 14 z"/>
</svg>
